!!!OTL: ACH WENN DOCH IMMER KIRMES WAER
!!!ARE: Europa, Mitteleuropa, Deutschland, Sachsen
!!!SCT: E0997
!!!YEM: Copyright 1995, estate of Helmut Schaffrath.
**kern
*ICvox
*Ivox
*M3/4
*k[b-]
*F:
{8f
8f
8g
=1
4.a
8b-
8g
8a
=2
4f
8r}
{8a
8a
8b-
=3
4.cc
8dd
8b-
8cc
=4
2a
4r}
=5
{8f
8a
4cc
4cc
=6
8ff
8dd
4cc
8cc}
{8f
=7
8f
8g
4a
4a
=8
4g
4f
4r}
=9
{8f
8a
4cc
4cc
=10
8ff
8dd
4cc
8cc}
{8f
=11
8f
8g
4a
4a
=12
4g
4f
4r}
=13
{4f
4f
4g
=14
4.a
8g
4f}
=15
{4a
4a
4b-
=16
4.cc
8b-
4a}
=17
{8f
8a
4cc
4cc
=18
8ff
8dd
8cc
8b-
4cc}
=19
{8f
8a
4cc
4cc
=20
8ff
8dd
8cc
8b-
4cc}
=21
{8f
8g
4a
4a
=22
4g
8f}
==
!!!AGN: Tanz - Lied, Reigen, Kirmes
!!!ONB: ESAC (Essen Associative Code) Database: ERK2
!!!AMT: simple triple
!!!AIN: vox
!!!EED: Helmut Schaffrath
!!!EEV: 1.0
*-
